symbols/web/no_adult_content/materialsymbolsoutlined/no_adult_content_wght700gradN25_24px.svg

<svg xmlns="http://www.w3.org/2000/svg" height="24" width="24"><path d="M12 22.6q-2.225 0-4.15-.825-1.925-.825-3.362-2.263-1.438-1.437-2.263-3.362T1.4 12q0-2.25.825-4.162.825-1.913 2.263-3.351Q5.925 3.05 7.85 2.225T12 1.4q2.25 0 4.163.825 1.912.825 3.35 2.262 1.437 1.438 2.262 3.351Q22.6 9.75 22.6 12q0 2.225-.825 4.15-.825 1.925-2.262 3.362-1.438 1.438-3.35 2.263Q14.25 22.6 12 22.6Zm0-3.025q1.175 0 2.275-.363 1.1-.362 2-.987l-3.3-3.3H16.9l1.35 1.35q.625-.9.975-2t.35-2.275q0-3.175-2.212-5.375-2.213-2.2-5.363-2.2-1.175 0-2.275.35-1.1.35-2 .975l3.3 3.3H7.1L5.75 7.7q-.625.925-.975 2.012-.35 1.088-.35 2.288 0 3.15 2.212 5.363Q8.85 19.575 12 19.575ZM5 14l1.5-2L5 10h1.5l.75 1L8 10h1.5L8 12l1.5 2H8l-.75-1-.75 1Zm4.75 0 1.5-2-1.5-2h1.5l.75 1 .75-1h1.5l-1.5 2 1.5 2h-1.5L12 13l-.75 1Zm4.75 0 1.5-2-1.5-2H16l.75 1 .75-1H19l-1.5 2 1.5 2h-1.5l-.75-1-.75 1Z"/></svg>

<svg xmlns="http://www.w3.org/2000/svg" height="24" width="24"><path d="M12 22.6Q9.775 22.6 7.85 21.775Q5.925 20.95 4.488 19.512Q3.05 18.075 2.225 16.15Q1.4 14.225 1.4 12Q1.4 9.75 2.225 7.838Q3.05 5.925 4.488 4.487Q5.925 3.05 7.85 2.225Q9.775 1.4 12 1.4Q14.25 1.4 16.163 2.225Q18.075 3.05 19.513 4.487Q20.95 5.925 21.775 7.838Q22.6 9.75 22.6 12Q22.6 14.225 21.775 16.15Q20.95 18.075 19.513 19.512Q18.075 20.95 16.163 21.775Q14.25 22.6 12 22.6ZM12 19.575Q13.175 19.575 14.275 19.212Q15.375 18.85 16.275 18.225L12.975 14.925H16.9L18.25 16.275Q18.875 15.375 19.225 14.275Q19.575 13.175 19.575 12Q19.575 8.825 17.363 6.625Q15.15 4.425 12 4.425Q10.825 4.425 9.725 4.775Q8.625 5.125 7.725 5.75L11.025 9.05H7.1L5.75 7.7Q5.125 8.625 4.775 9.712Q4.425 10.8 4.425 12Q4.425 15.15 6.637 17.363Q8.85 19.575 12 19.575ZM9.75 14 11.25 12 9.75 10H11.25L12 11L12.75 10H14.25L12.75 12L14.25 14H12.75L12 13L11.25 14ZM5 14 6.5 12 5 10H6.5L7.25 11L8 10H9.5L8 12L9.5 14H8L7.25 13L6.5 14ZM14.5 14 16 12 14.5 10H16L16.75 11L17.5 10H19L17.5 12L19 14H17.5L16.75 13L16 14Z"/></svg>
